X:34
T:Pollonesse no 34
T:ur Andreas Dahlgrens Notbok
N:
C:Trad.
B:Andreas Dahlgrens Notbok
D:
Z:Konverterad till abc av Olle Paulsson 170415
Z:http://fmk.musikverket.se/browselarge.php?lang=sw&katalogid=Ma+7&bildnr=00016
M:3/4
L:1/16
K:C
c2cG E2EG E2C2 | c2cd e2ef g4 | a2fa g2eg f2ed | c2Bc d2dB G4 | 
c2cG E2EG E2C2 | c2cd e2ef g4 | a2fa g2eg f2ed | c2Bc d4 c4:|
|:egec egec egec | BdBG BdBG BdBG | AcAF AcAF AcAF | EGEC EGEC G,2g2 | a2fa g2eg f2ed | c2Bc d4 c4:|

